!!!!SEGMENT: pl-kk--kk-i-1--058_anonim--responsory.krn
!!!cenid: 15xx:783
!!!COM: Anonim
!!!COM-rismID: pe30004985
!!!CDT:
!!!CNT:
!!!OTL: [Responsory]
!!!PDT:
!!!AGN:
!!!SMS-siglum: PL-Kk
!!!SMS-shelfmark: Kk.I.1
!!!SMS-shelfwork: 058 W
!!!SMS-variant:
!!!SMS-altvar:
!!!NIFC-rismSourceID: 300257954
!!!NIFC-rismChildID: 300258012
!!!NIFC-islandoraID: pl-kk:1
!!!URL-pdf-islandora: https://repozytorium.nifc.pl/islandora/object/pl-kk%3A1/datastream/PDF/view
!!!URL-scan: https://polish.musicsources.pl/pl/lokalizacje/galeria/rekopisy/5736 @EN{Scan on Polish Music Sources Website} @PL{Skany w portalu Dziedzictwo Muzyki Polskiej w otwartym dostępie}
!!!IIIF: https://repozytorium.nifc.pl/islandora/object/pl-kk%3A1/datastream/IIIF/view
!!!ONB-nifc: UWAGA: Cantus (s. 182v-183r, skan 0185), Altus (s. 185v, skan 0379), Tenor (s. 164v, skan 0555), Bassus (s. 180v, skan 0743).
!!!AIN: 1 alto 1 bass 1 soprn 1 tenor
!!!key:
**kern	**text	**kern	**text	**kern	**text	**kern	**text
*part4	*part4	*part3	*part3	*part2	*part2	*part1	*part1
*staff4	*staff4	*staff3	*staff3	*staff2	*staff2	*staff1	*staff1
*I"BASSVS	*	*I"TENOR	*	*I"ALTVS	*	*I"CANTVS	*
*I'B	*	*I'T	*	*I'A	*	*I'S	*
*ICvox	*	*ICvox	*	*ICvox	*	*ICvox	*
*Ibass	*	*Itenor	*	*Ialto	*	*Isoprn	*
*clefF3	*	*clefC3	*	*clefC3	*	*clefC2	*
*k[]	*	*k[]	*	*k[]	*	*k[]	*
*C:	*	*C:	*	*C:	*	*C:	*
*M2/1	*	*M2/1	*	*M2/1	*	*M2/1	*
*met(C)	*	*met(C)	*	*met(C)	*	*met(C)	*
=1	=1	=1	=1	=1	=1	=1	=1
*xywh-#743:1447,482,4402,1069	*	*xywh-#555:1234,407,4486,1094	*	*xywh-#379:1329,376,4466,1177	*	*xywh-#185:1488,496,4348,1174	*
!LO:TX:a:i:t=Q(uat)uor vocu(m).	!	!LO:TX:a:i:t=Quatuor vocu(m).	!	!LO:TX:a:i:t=Quatuor Vocum.	!	!LO:TX:a:i:t=Quatuor Vocum.	!
2c\	Et	2c/	Et	2e\	Et	2g\	Et
4A\	cum	4c/	cum	4e\	cum	4a\	cum
2F/	ſpi-	2c/	ſpi-	2f\	.	2a\	ſpi-
4A\	-ri-	4c/	-ri-	4e\	ſpi-	4a\	-ri-
2E/	-tu	2c/	-tu	2e\	-ri-	2g\	-tu
=2	=2	=2	=2	=2	=2	=2	=2
1F	tu-	1c	tu-	4A/	-tu	1a	tu-
.	.	.	.	4B/	.	.	.
.	.	.	.	4c/	.	.	.
.	.	.	.	4d/	tu-	.	.
!LO:N:vis=0	!	!LO:N:vis=0	!	!LO:N:vis=0	!	!LO:N:vis=0	!
1C	-o.	1c	-o.	1e	-o.	1g	-o.
=3||	=3||	=3||	=3||	=3||	=3||	=3||	=3||
2C/	A-	1c	A-	2g\	A-	2cc\	A-
2F/	.	.	.	2f\	-men.	2a\	.
!LO:N:vis=0	!	!LO:N:vis=0	!	!LO:N:vis=0	!	!LO:N:vis=0	!
1C	-men.	1c	-men.	1e	.	1g	-men.
=4||	=4||	=4||	=4||	=4||	=4||	=4||	=4||
2c\	Glo-	2c/	Glo-	2e\	Glo-	2g\	Glo-
4F/	-ri-	4c/	-ri-	4f\	-ri-	4a\	-ri-
4F/	-a	4c/	-a	4f\	-a	4a\	-a
2A\	ti-	2c/	ti-	2e\	.	2a\	ti-
*	*	*	*	*	*	*custos:a	*
2E/	-bi	2B/	-bi	2e\	ti-	2g\	-bi
!	!	!	!	!	!	!LO:LB:g=original	!
=5	=5	=5	=5	=5	=5	=5	=5
*	*	*	*	*	*	*xywh-#185:1433,1601,4480,902	*
2F/	D(o-	2A/	do-	4c/	-bi	2a\	Do-
.	.	.	.	2A/	d(o-	.	.
2D/	-mi)-	2A/	-mi-	.	.	2a\	-mi-
.	.	.	.	4d\	-mi)-	.	.
!LO:N:vis=0	!	!LO:N:vis=0	!	!LO:N:vis=0	!	!LO:N:vis=0	!
1AA	-ne.	1A	-ne.	1c#X	-ne.	1a	-ne.
*	*	*	*	*	*	*clefC1	*
!LO:LB:g=original	!	!LO:LB:g=original	!	!LO:LB:g=original	!	!	!
=6||	=6||	=6||	=6||	=6||	=6||	=6||	=6||
*xywh-#743:1421,1317,4402,1063	*	*xywh-#555:1091,1404,4519,911	*	*xywh-#379:1345,1428,4459,934	*	*	*
!LO:TX:a:i:t=Pr(ae)fa&colon;\ntionis.	!	!LO:TX:a:i:t=Pr(ae)&colon;\nfat(ionis).	!	!LO:TX:a:i:t=Pr(ae)fa&colon;\ntionis.	!	!LO:TX:a:i:t=Pr(ae)fa&colon;\ntionis.	!
2c\	Et	2c/	Et	2.g\	Et	2.cc\	Et
2G\	cum	2d\	cum	.	.	.	.
.	.	.	.	4g\	.	4b\	.
2E/	.	1e	ſpi-	2g\	cum	2b\	cum
2A\	ſpi-	.	.	2a\	.	2cc\	.
=7	=7	=7	=7	=7	=7	=7	=7
2D/	.	1d	-ri-	2a\	ſpi-	2dd\	ſpi-
2G\	-ri-	.	.	2g\	-ri-	2b\	-ri-
4C/	-tu	2c/	-tu	2e\	-tu	2cc\	-tu
2c\	.	.	.	.	.	.	.
.	.	2d\	.	2r	.	2g\	.
4B\	tu-	.	.	.	.	.	.
=8	=8	=8	=8	=8	=8	=8	=8
4A\	-o.	1e	tu-	4r	.	4a\	.
4G\	.	.	.	4d\	tu-	4b\	tu-
2A\	.	.	.	4g\	-o.	2a\	-o.
.	.	.	.	4e\	.	.	.
!LO:N:vis=0	!	!LO:N:vis=0	!	!LO:N:vis=0	!	!LO:N:vis=0	!
1D	.	1d	-o.	1f#X	.	1a	.
=9||	=9||	=9||	=9||	=9||	=9||	=9||	=9||
2c\	Ha-	2c/	Ha-	2e\	Ha-	2g/	Ha-
4A\	.	2c/	-be-	2e\	-be-	1a	-be-
4G\	-be-	.	.	.	.	.	.
2F/	.	2d\	.	2f\	.	.	.
2E/	-mus	2e\	-mus	4g\	.	4g/	.
.	.	.	.	4G/	-mus	4.b-X\	-mus
=10	=10	=10	=10	=10	=10	=10	=10
2D/	.	2f\	.	4.d\	.	.	.
*	*	*	*	*	*	*custos:a	*
.	.	.	.	.	.	8a\	.
!	!	!	!	!	!	!LO:LB:g=original	!
*	*	*	*	*	*	*xywh-#185:1433,2386,4371,824	*
.	.	.	.	.	.	2a\	.
.	.	.	.	8c/L	.	.	.
2E/	.	2e\	.	8B/	.	.	.
.	.	.	.	8A/J	.	.	.
.	.	.	.	4B/	ad	4g/	.
4AA/	.	2e\	ad	4A/	.	4a\	.
4A\	ad	.	.	4A/	D(o-	4a\	.
4B\	.	2d\	do-	4d\	.	4f/	.
4B\	do-	.	.	4G/	-mi)-	4g/	.
!LO:LB:g=original	!	!	!	!	!	!	!
=11	=11	=11	=11	=11	=11	=11	=11
*xywh-#743:1479,2230,4200,971	*	*	*	*custos:d	*	*	*
2A\	-mi-	2e\	-mi-	1c	-n(u)m	2a\	.
2F/	.	1f	-num.	.	.	2a\	ad
!	!	!	!	!LO:LB:g=original	!	!	!
*	*	*	*	*xywh-#379:1415,2283,4388,942	*	*	*
2.B\	-num.	.	.	2d\	.	4b-X\	.
.	.	.	.	.	.	4b-\	Do-
.	.	2d\	.	2f\	.	4f/	-mi-
4A\	.	.	.	.	.	4a\	.
=12	=12	=12	=12	=12	=12	=12	=12
!	!	!	!	!	!	!LO:N:acc=#	!
4G\	.	1d	.	2d\	.	4bn\	-num.
4F\	.	.	.	.	.	2cc\	.
2G\	.	.	.	2g\	.	.	.
.	.	.	.	.	.	4b\	.
!LO:N:vis=0	!	!LO:N:vis=0	!	!LO:N:vis=0	!	!LO:N:vis=0	!
1C	.	1c	.	1g	.	1cc	.
!	!	!LO:LB:g=original	!	!	!	!	!
=13||	=13||	=13||	=13||	=13||	=13||	=13||	=13||
*	*	*xywh-#555:1241,2296,4395,846	*	*	*	*	*
2c\	Di-	2c/	Di-	2e\	Di-	2cc\	Di-
4G\	.	2d\	.	4g\	.	4b\	-gnum
4F\	.	.	.	2d\	.	4a\	.
2E/	-gnum	2e\	.	.	.	4g/	.
.	.	.	.	4c/	-gnum	4e/	.
4D/	.	2f\	.	4d\	.	4a\	.
4d\	et	.	.	4d\	.	4a\	.
=14	=14	=14	=14	=14	=14	=14	=14
2A\	iu-	2e\	.	2a\	et	2cc\	et
*	*	*	*	*	*	*custos:b	*
2c\	.	2e\	-gnum	2g\	iu-	2g/	iu-
!	!	!	!	!	!	!LO:LB:g=original	!
*	*	*	*	*	*	*xywh-#185:1418,3102,4239,964	*
2G\	-ſtum	2d\	et	2.g\	-ſtum	2.b\	.
2E/	.	2e\	iu-	.	.	.	.
.	.	.	.	4g\	.	4cc\	-ſtum
=15	=15	=15	=15	=15	=15	=15	=15
1D	eſt.	2f\	-ſtum	1a	eſt.	2.dd\	.
.	.	2d\	.	.	.	.	.
.	.	.	.	.	.	4cc\	.
1G	.	1d	eſt.	1g	.	4b\	eſt.
.	.	.	.	.	.	4a\	.
.	.	.	.	.	.	2b\	.
=16	=16	=16	=16	=16	=16	=16	=16
0C	.	0c	.	0g	.	0cc	.
*	*	*	*	*	*	*clefC2	*
!LO:LB:g=original	!	!	!	!	!	!	!
=17||	=17||	=17||	=17||	=17||	=17||	=17||	=17||
*xywh-#743:1440,3098,4291,939	*	*	*	*	*	*	*
!	!	!	!	!	!	!LO:TX:t=P:problem=brak zmiany klucza na c2 w odpowiedzi Sed libera 	!
2c\	Sed	2c/	Sed	2e\	Sed	2g\	Sed
2A\	li-	2c/	li-	2e\	li-	2cc\	li-
2G\	-be-	2d\	-be-	2g\	-be-	2b\	-ber-
2E/	-ra	2e\	-ra	2g\	-ra	2b\	-ra
=18	=18	=18	=18	=18	=18	=18	=18
2A\	nos	2c/	nos	2e\	nos	2a\	nos
2D/	a	2d\	a	2a\	a	2a\	a
1G	ma-	1d	ma-	1g	ma-	1b	ma-
=19	=19	=19	=19	=19	=19	=19	=19
0C	-lo.	0c	-lo.	0g	-lo.	0cc	-lo.
*clefF4	*	*	*	*	*	*clefC1	*
!	!	!LO:LB:g=original	!	!LO:LB:g=original	!	!LO:PB:g=original	!
=20||	=20||	=20||	=20||	=20||	=20||	=20||	=20||
*	*	*xywh-#555:1306,3038,4323,983	*	*xywh-#379:1462,3100,4278,910	*	*xywh-#185:5871,543,4713,1120	*
!	!	!	!	!	!	!LO:TX:t=P:problem=róg karty urwany, nuty niewidoczne	!
2C/	De-	2c\	De-	2G/	De-	2e/yy	De-
2F\	.	2A/	-o	8F/L	-o	2.f/yy	.
.	.	.	.	8G/	.	.	.
.	.	.	.	8A/	.	.	.
.	.	.	.	8B/J	.	.	.
2C/	-o	2G/	gra-	4c\	gra-	.	.
.	.	.	.	4c\	-ti-	4e/	-o
2.D/	.	2.F/	-ti-	4F/	-as	2.d/	.
.	.	.	.	4D/	.	.	.
=21	=21	=21	=21	=21	=21	=21	=21
.	.	.	.	8E/L	.	.	.
.	.	.	.	8F/J	.	.	.
4C/	.	4E/	.	4G/	.	4A/	.
2BB/	gra-	2D/	-as.	2A/	.	4d/	gra-
.	.	.	.	.	.	4B/	-ti-
*	*	*	*	*	*ij	*	*
4AA/	-ti-	1E	.	4A/	De-	4e/	-as
2C/	-as.	.	.	4G/	.	2e/	.
.	.	.	.	4G/	-o	.	.
4GG/	.	.	.	4G/	gra-	4g/	.
=22	=22	=22	=22	=22	=22	=22	=22
2AA/	.	0E	.	2c\	.	2e/	.
2AA/	.	.	.	2c\	-ti-	2e/	.
!LO:N:vis=0	!	!	!	!LO:N:vis=0	!	!LO:N:vis=0	!
1EE	.	.	.	1B	-as	1e	.
*	*	*	*	*	*Xij	*	*
=23||	=23||	=23||	=23||	=23||	=23||	=23||	=23||
2C/	A-	2G/	A-	2c\	A-	2e/	A-
2GG/	-men.	2G/	-men.	2B\	-men.	2d/	-men.
==	==	==	==	==	==	==	==
*-	*-	*-	*-	*-	*-	*-	*-
!!!system-decoration: [(s1,s2,s3,s4)]
!!!ENC: Mateusz Solarz
!!!END: 2022-02-23
!!!ENC: Natalia Wrzos
!!!END: 2022-02-27
!!!ENC-iiif: Jan Barakat
!!!END-iiif: 2022-09-01
!!!YEC: Copyright 2022 Narodowy Instytut Fryderyka Chopina (https://polishscores.org)
!!!YEM: License CC-BY-4.0 (https://creativecommons.org/licenses/by/4.0)
